packages/core/src/svgs/tokens/mono/HEZ.svg

<svg width="24" height="24" viewBox="0 0 24 24" fill="none" xmlns="http://www.w3.org/2000/svg">
<path d="M18.7187 12.6136C18.7375 12.7136 18.7187 12.8135 18.6875 12.9073L17.9749 14.6886C17.9427 14.7819 17.8864 14.8652 17.8119 14.9298C17.7372 14.9946 17.647 15.0386 17.55 15.0573L15.525 15.4324C15.451 15.4448 15.3753 15.4423 15.3023 15.4249C15.2293 15.4077 15.1605 15.3759 15.0999 15.3317C15.0393 15.2874 14.9883 15.2315 14.9496 15.1672C14.911 15.1029 14.8856 15.0316 14.875 14.9572C14.8626 14.8869 14.8626 14.815 14.875 14.7448L15.2 12.9636C15.2438 12.7136 15.4312 12.5261 15.6687 12.4949L18.0812 12.1198C18.1561 12.1093 18.2323 12.1141 18.3054 12.1338C18.3784 12.1535 18.4467 12.1876 18.5062 12.2343C18.5657 12.2809 18.6153 12.3391 18.6517 12.4055C18.6882 12.4717 18.7111 12.5446 18.7187 12.6198V12.6136ZM17.2624 13.2386L16.2312 13.3948C16.192 13.4009 16.1557 13.4194 16.1277 13.4474C16.0995 13.4756 16.0812 13.5119 16.075 13.5511L15.975 14.0948C15.9562 14.2011 16.025 14.301 16.1249 14.3198C16.1477 14.324 16.171 14.324 16.1937 14.3198L17.1062 14.1511C17.1377 14.1461 17.1676 14.1331 17.1927 14.1134C17.2179 14.0938 17.2376 14.068 17.25 14.0385L17.4625 13.5074C17.4813 13.4591 17.4809 13.4056 17.461 13.3577C17.4412 13.3101 17.4036 13.2717 17.3562 13.251C17.3267 13.2383 17.2943 13.2341 17.2624 13.2386ZM20.1687 8.90111C20.1812 8.99485 20.1687 9.0886 20.1375 9.18234L19.4499 10.976C19.4165 11.0727 19.3577 11.1585 19.2795 11.2245C19.2015 11.2904 19.107 11.3342 19.0063 11.3511L16.2187 11.7635C16.1439 11.774 16.0676 11.7693 15.9945 11.7497C15.9215 11.73 15.8532 11.6958 15.7937 11.649C15.7342 11.6024 15.6846 11.5442 15.6482 11.478C15.6117 11.4118 15.5888 11.3388 15.5812 11.2636C15.5738 11.2012 15.5758 11.1379 15.5875 11.0761L15.9124 9.2761C15.9562 9.0261 16.1563 8.8386 16.3937 8.80109L19.5374 8.39485C19.6119 8.3862 19.6873 8.3925 19.7592 8.4134C19.8312 8.43428 19.8982 8.46932 19.9565 8.51649C20.0147 8.56365 20.0628 8.62197 20.0982 8.688C20.1337 8.75405 20.1554 8.8265 20.1624 8.90111H20.1687ZM18.4062 9.48241L16.6062 9.71982C16.5659 9.72478 16.5281 9.74257 16.4988 9.77086C16.4695 9.79901 16.4503 9.8359 16.4437 9.87615L16.3437 10.4573C16.3383 10.4819 16.3378 10.5075 16.3425 10.5323C16.3472 10.5572 16.3568 10.5808 16.3708 10.6018C16.3848 10.6228 16.4029 10.6408 16.424 10.6546C16.4452 10.6685 16.4689 10.6779 16.4937 10.6823H16.5563L18.2374 10.4324C18.2704 10.4262 18.3012 10.4115 18.3264 10.3895C18.3516 10.3675 18.3706 10.3392 18.3812 10.3074L18.6062 9.7449C18.6252 9.69838 18.6253 9.64632 18.6067 9.59966C18.588 9.55299 18.552 9.51536 18.5062 9.4948C18.4747 9.48109 18.44 9.47687 18.4062 9.48241ZM21.9999 4.28238C21.9999 4.39488 21.9874 4.51363 21.9499 4.61988L20.9874 7.13237C20.9425 7.26362 20.8621 7.37984 20.7551 7.46811C20.648 7.55639 20.5185 7.61325 20.3812 7.63235L15.3313 8.30111C15.2317 8.31324 15.1308 8.30528 15.0342 8.2777C14.9378 8.25012 14.848 8.20349 14.7698 8.14056C14.6918 8.07762 14.6271 7.99967 14.5797 7.91131C14.5323 7.82294 14.503 7.72596 14.4938 7.62611C14.4825 7.54943 14.4825 7.47154 14.4938 7.39486L15.05 4.64488C15.1125 4.29488 15.3874 4.03238 15.725 4.00113L21.1937 3.56364C21.6061 3.5324 21.9687 3.85114 21.9999 4.28238ZM19.8375 5.03863L15.9813 5.36988L15.6937 6.91362L19.4936 6.36987C19.5587 6.36039 19.6199 6.33404 19.6714 6.29347C19.723 6.25288 19.763 6.19949 19.7875 6.13862L20.0875 5.40114C20.1499 5.27613 20.0875 5.11988 19.9625 5.06364C19.9238 5.04407 19.8807 5.03542 19.8375 5.03863Z" fill="white"/>
<path d="M8.21299 6.0636H5.00052C4.59428 6.0636 4.24428 6.36985 4.16928 6.78859L2.01305 19.4134C1.99153 19.5366 1.99668 19.6631 2.02813 19.7841C2.05959 19.9052 2.11662 20.018 2.19539 20.1152C2.27416 20.2123 2.37285 20.2915 2.48478 20.3472C2.59672 20.4029 2.7193 20.4341 2.84429 20.4385H6.05052C6.463 20.4385 6.813 20.1322 6.888 19.7135L7.51925 15.7261C7.53233 15.647 7.57258 15.5751 7.63306 15.5226C7.69353 15.4701 7.77044 15.4404 7.85049 15.4385H9.91301C9.96405 15.4385 10.0144 15.4497 10.0606 15.4714C10.1067 15.4933 10.1474 15.5251 10.1797 15.5646C10.212 15.6041 10.2352 15.6502 10.2474 15.6998C10.2597 15.7494 10.2607 15.801 10.2505 15.851L9.68799 19.4134C9.66641 19.5366 9.67166 19.6631 9.70301 19.7841C9.73451 19.9052 9.79153 20.018 9.87028 20.1152C9.94903 20.2123 10.0478 20.2915 10.1598 20.3472C10.2716 20.4029 10.3943 20.4341 10.5192 20.4385H13.7255C14.1379 20.4385 14.4879 20.1322 14.5567 19.7135L16.7129 7.08858C16.7345 6.96589 16.7293 6.84002 16.6983 6.7194C16.6672 6.5988 16.6108 6.48621 16.5326 6.38918C16.4546 6.29215 16.3566 6.2129 16.2455 6.15676C16.1342 6.10061 16.0124 6.06885 15.8879 6.0636H12.6816C12.2755 6.0636 11.9255 6.36985 11.8504 6.78233L11.2192 10.7761C11.2061 10.8551 11.1659 10.927 11.1053 10.9795C11.045 11.032 10.968 11.0618 10.8879 11.0635H8.82554C8.78033 11.0628 8.73585 11.053 8.69444 11.0351C8.65302 11.017 8.61554 10.991 8.58419 10.9585C8.55283 10.926 8.52833 10.8876 8.51171 10.8456C8.49523 10.8035 8.48721 10.7587 8.48794 10.7135V10.6511L9.05041 7.08858C9.072 6.96488 9.06675 6.83798 9.03495 6.71652C9.00316 6.59505 8.94556 6.48184 8.86608 6.38462C8.7866 6.28738 8.68715 6.20838 8.57456 6.15298C8.46183 6.09759 8.3385 6.06711 8.21299 6.0636Z" fill="white"/>
</svg>

<svg xmlns="http://www.w3.org/2000/svg" width="24" height="24" fill="none" viewBox="0 0 24 24">
    <path fill="#fff" d="M18.719 12.614c.018.1 0 .2-.032.293l-.712 1.782a.56.56 0 0 1-.425.368l-2.025.375a.56.56 0 0 1-.65-.475.6.6 0 0 1 0-.212l.325-1.781a.56.56 0 0 1 .469-.47l2.412-.374a.56.56 0 0 1 .638.5zm-1.457.625-1.03.156a.19.19 0 0 0-.157.156l-.1.544a.193.193 0 0 0 .15.225.2.2 0 0 0 .069 0l.912-.169a.19.19 0 0 0 .144-.112l.212-.532a.2.2 0 0 0-.106-.256.2.2 0 0 0-.094-.012M20.17 8.9a.6.6 0 0 1-.032.281l-.687 1.794a.57.57 0 0 1-.444.375l-2.787.412a.564.564 0 0 1-.638-.5.6.6 0 0 1 .007-.187l.324-1.8a.58.58 0 0 1 .482-.475l3.143-.406a.56.56 0 0 1 .625.506zm-1.763.581-1.8.238a.19.19 0 0 0-.162.156l-.1.581a.19.19 0 0 0 .15.225h.062l1.681-.25a.19.19 0 0 0 .144-.125l.225-.562a.194.194 0 0 0-.1-.25.2.2 0 0 0-.1-.013M22 4.282c0 .113-.013.232-.05.338l-.963 2.512a.75.75 0 0 1-.606.5l-5.05.67a.75.75 0 0 1-.837-.676.8.8 0 0 1 0-.231l.556-2.75A.77.77 0 0 1 15.725 4l5.469-.437a.76.76 0 0 1 .806.718m-2.163.757-3.856.33-.287 1.545 3.8-.544a.37.37 0 0 0 .294-.231l.3-.738a.254.254 0 0 0-.126-.337.24.24 0 0 0-.125-.025"/>
    <path fill="#fff" d="M8.213 6.064H5.001c-.407 0-.757.306-.832.725L2.013 19.413a.875.875 0 0 0 .831 1.026h3.207a.86.86 0 0 0 .837-.726l.631-3.987a.344.344 0 0 1 .331-.288h2.063a.35.35 0 0 1 .267.127.34.34 0 0 1 .07.286l-.562 3.562a.876.876 0 0 0 .831 1.026h3.207a.85.85 0 0 0 .83-.726L16.714 7.09a.874.874 0 0 0-.825-1.025h-3.206a.86.86 0 0 0-.832.718l-.63 3.994a.34.34 0 0 1-.332.287H8.826a.344.344 0 0 1-.338-.35v-.062L9.05 7.09a.875.875 0 0 0-.837-1.025"/>
</svg>
